resources/svg/paintbucket-o.svg

<svg xmlns="http://www.w3.org/2000/svg" viewBox="0 0 15 15" fill="none"><path d="M6.08579 2.91421L5.73224 2.56066V2.56066L6.08579 2.91421ZM1.91422 7.08579L1.56066 6.73223H1.56066L1.91422 7.08579ZM1.91422 9.91421L2.26777 9.56066H2.26777L1.91422 9.91421ZM5.08579 13.0858L5.43934 12.7322V12.7322L5.08579 13.0858ZM7.91422 13.0858L8.26777 13.4393L7.91422 13.0858ZM12.0858 8.91421L11.7322 8.56066L12.0858 8.91421ZM12.0858 6.08579L12.4393 5.73223L12.0858 6.08579ZM8.91422 2.91421L8.56066 3.26777V3.26777L8.91422 2.91421ZM12.6808 10.5L13.0343 10.1464L12.6808 9.79289L12.3272 10.1464L12.6808 10.5ZM13.8615 11.6808L13.508 12.0343L13.8615 11.6808ZM11.6376 14L11.95 13.6096L11.6376 14ZM13.7239 14L13.4116 13.6096L13.7239 14ZM5.73224 2.56066L1.56066 6.73223L2.26777 7.43934L6.43934 3.26777L5.73224 2.56066ZM1.56066 10.2678L4.73224 13.4393L5.43934 12.7322L2.26777 9.56066L1.56066 10.2678ZM8.26777 13.4393L12.4393 9.26777L11.7322 8.56066L7.56066 12.7322L8.26777 13.4393ZM12.4393 5.73223L9.26777 2.56066L8.56066 3.26777L11.7322 6.43934L12.4393 5.73223ZM12.4393 9.26777C13.4157 8.29145 13.4157 6.70854 12.4393 5.73223L11.7322 6.43934C12.318 7.02513 12.318 7.97487 11.7322 8.56066L12.4393 9.26777ZM4.73224 13.4393C5.70855 14.4157 7.29146 14.4157 8.26777 13.4393L7.56066 12.7322C6.97488 13.318 6.02513 13.318 5.43934 12.7322L4.73224 13.4393ZM1.56066 6.73223C0.584351 7.70855 0.584354 9.29146 1.56066 10.2678L2.26777 9.56066C1.68198 8.97487 1.68198 8.02513 2.26777 7.43934L1.56066 6.73223ZM6.43934 3.26777C7.02513 2.68198 7.97488 2.68198 8.56066 3.26777L9.26777 2.56066C8.29146 1.58435 6.70855 1.58435 5.73224 2.56066L6.43934 3.26777ZM7 7V2.5H6V7H7ZM2 2.5V6.5H3V2.5H2ZM4.5 0C3.11929 0 2 1.11929 2 2.5H3C3 1.67157 3.67158 1 4.5 1V0ZM7 2.5C7 1.11929 5.88072 0 4.5 0V1C5.32843 1 6 1.67157 6 2.5H7ZM1.5 10H11.5V9H1.5V10ZM12.3272 10.8536L13.508 12.0343L14.2151 11.3272L13.0343 10.1464L12.3272 10.8536ZM11.8536 12.0343L13.0343 10.8536L12.3272 10.1464L11.1465 11.3272L11.8536 12.0343ZM11.95 13.6096C11.66 13.3776 11.5283 13.0995 11.5125 12.8407C11.4968 12.5828 11.5932 12.2947 11.8536 12.0343L11.1465 11.3272C10.7031 11.7706 10.4797 12.3313 10.5144 12.9015C10.5491 13.471 10.8381 14.0007 11.3253 14.3904L11.95 13.6096ZM13.4116 13.6096C12.9843 13.9514 12.3772 13.9514 11.95 13.6096L11.3253 14.3904C12.1177 15.0244 13.2438 15.0244 14.0363 14.3904L13.4116 13.6096ZM13.508 12.0343C13.7684 12.2947 13.8647 12.5828 13.849 12.8407C13.8332 13.0995 13.7016 13.3776 13.4116 13.6096L14.0363 14.3904C14.5234 14.0007 14.8125 13.471 14.8472 12.9015C14.8819 12.3313 14.6585 11.7706 14.2151 11.3272L13.508 12.0343Z" fill="black"/></svg>

<svg xmlns="http://www.w3.org/2000/svg" viewBox="0 0 15 15" fill="none"><path d="M6.086 2.914l-.354-.353.354.353zM1.914 7.086l-.353-.354.353.354zm0 2.828l.354-.353-.354.353zm3.172 3.172l.353-.354-.353.354zm2.828 0l.354.353-.354-.353zm4.172-4.172l-.354-.353.354.353zm0-2.828l.353-.354-.353.354zM8.914 2.914l-.353.354.353-.354zm3.767 7.586l.353-.354-.353-.353-.354.353.354.354zm1.18 1.18l-.353.354.354-.353zM11.639 14l.312-.39-.312.39zm2.086 0l-.312-.39.312.39zM5.732 2.56L1.561 6.733l.707.707 4.171-4.171-.707-.707zm-4.171 7.708l3.171 3.171.707-.707-3.171-3.171-.707.707zm6.707 3.171l4.171-4.171-.707-.707-4.171 4.171.707.707zm4.171-7.707L9.268 2.561l-.707.707 3.171 3.171.707-.707zm0 3.536a2.5 2.5 0 000-3.536l-.707.707a1.5 1.5 0 010 2.122l.707.707zm-7.707 4.171a2.5 2.5 0 003.536 0l-.707-.707a1.5 1.5 0 01-2.122 0l-.707.707zM1.561 6.732a2.5 2.5 0 000 3.536l.707-.707a1.5 1.5 0 010-2.122l-.707-.707zm4.878-3.464a1.5 1.5 0 012.122 0l.707-.707a2.5 2.5 0 00-3.536 0l.707.707zM7 7V2.5H6V7h1zM2 2.5v4h1v-4H2zM4.5 0A2.5 2.5 0 002 2.5h1A1.5 1.5 0 014.5 1V0zM7 2.5A2.5 2.5 0 004.5 0v1A1.5 1.5 0 016 2.5h1zM1.5 10h10V9h-10v1zm10.827.854l1.181 1.18.707-.707-1.18-1.18-.708.707zm-.473 1.18l1.18-1.18-.707-.708-1.18 1.181.707.707zm.096 1.576c-.29-.232-.422-.51-.438-.77-.015-.257.081-.545.342-.806l-.707-.707c-.444.444-.667 1.004-.633 1.575.035.569.324 1.099.811 1.488l.625-.78zm1.462 0a1.17 1.17 0 01-1.462 0l-.625.78a2.17 2.17 0 002.711 0l-.624-.78zm.096-1.576c.26.26.357.549.341.807-.016.259-.147.537-.437.769l.624.78c.487-.39.777-.919.811-1.489.035-.57-.188-1.13-.632-1.574l-.707.707z" fill="currentColor"/></svg>
